actions/16/help-about.svg

<?xml version="1.0" encoding="UTF-8" standalone="no"?>
<svg
   xmlns:dc="http://purl.org/dc/elements/1.1/"
   xmlns:cc="http://creativecommons.org/ns#"
   xmlns:rdf="http://www.w3.org/1999/02/22-rdf-syntax-ns#"
   xmlns:svg="http://www.w3.org/2000/svg"
   xmlns="http://www.w3.org/2000/svg"
   xmlns:xlink="http://www.w3.org/1999/xlink"
   version="1.1"
   width="16"
   height="16"
   id="svg3928">
  <defs
     id="defs3930">
    <linearGradient
       x1="24.046366"
       y1="11.673002"
       x2="24.046366"
       y2="34.713669"
       id="linearGradient3677"
       xlink:href="#linearGradient3881"
       gradientUnits="userSpaceOnUse"
       gradientTransform="matrix(0.55048262,0,0,0.57815823,-3.8262247,-5.2762276)" />
    <linearGradient
       id="linearGradient3881">
      <stop
         id="stop3883"
         style="stop-color:#ffffff;stop-opacity:1"
         offset="0" />
      <stop
         id="stop3885"
         style="stop-color:#ffffff;stop-opacity:0.23529412"
         offset="0.33380178" />
      <stop
         id="stop3887"
         style="stop-color:#ffffff;stop-opacity:0.15686275"
         offset="0.67927718" />
      <stop
         id="stop3889"
         style="stop-color:#ffffff;stop-opacity:0.39215687"
         offset="1" />
    </linearGradient>
    <linearGradient
       x1="11.566265"
       y1="22.292103"
       x2="15.214532"
       y2="33.95525"
       id="linearGradient3674"
       xlink:href="#linearGradient8265-821-176-38-919-66-249"
       gradientUnits="userSpaceOnUse"
       gradientTransform="matrix(0.4893617,0,0,0.4893617,1.7131795,22.728095)" />
    <linearGradient
       id="linearGradient8265-821-176-38-919-66-249">
      <stop
         id="stop2687"
         style="stop-color:#ffffff;stop-opacity:0.27450982"
         offset="0" />
      <stop
         id="stop2689"
         style="stop-color:#ffffff;stop-opacity:0"
         offset="1" />
    </linearGradient>
    <linearGradient
       id="linearGradient3846">
      <stop
         id="stop3848"
         style="stop-color:#fff3cb;stop-opacity:1"
         offset="0" />
      <stop
         id="stop3850"
         style="stop-color:#fdde76;stop-opacity:1"
         offset="0.26238" />
      <stop
         id="stop3852"
         style="stop-color:#f9c440;stop-opacity:1"
         offset="0.66093999" />
      <stop
         id="stop3854"
         style="stop-color:#e48b20;stop-opacity:1"
         offset="1" />
    </linearGradient>
    <linearGradient
       id="linearGradient3856">
      <stop
         id="stop3858"
         style="stop-color:#b67926;stop-opacity:1"
         offset="0" />
      <stop
         id="stop3860"
         style="stop-color:#eab41a;stop-opacity:1"
         offset="1" />
    </linearGradient>
    <radialGradient
       cx="13.138569"
       cy="25.625349"
       r="13.931416"
       fx="13.138569"
       fy="25.625349"
       id="radialGradient3924"
       xlink:href="#linearGradient3846"
       gradientUnits="userSpaceOnUse"
       gradientTransform="matrix(0,0.92614711,-1.0546317,0,32.402583,-9.3345932)" />
    <linearGradient
       x1="21.483376"
       y1="36.255058"
       x2="21.483376"
       y2="9.5799999"
       id="linearGradient3926"
       xlink:href="#linearGradient3856"
       gradientUnits="userSpaceOnUse"
       gradientTransform="matrix(0.55048262,0,0,0.57815823,-3.8262247,-5.2762279)" />
  </defs>
  <metadata
     id="metadata3933">
    <rdf:RDF>
      <cc:Work
         rdf:about="">
        <dc:format>image/svg+xml</dc:format>
        <dc:type
           rdf:resource="http://purl.org/dc/dcmitype/StillImage" />
        <dc:title />
      </cc:Work>
    </rdf:RDF>
  </metadata>
  <g
     id="layer1">
    <path
       d="m 8.0000006,0.49613568 c 0.5064396,0 2.1391894,4.28357812 2.5489094,4.59622212 0.409717,0.3126432 4.793178,0.6198528 4.949676,1.125721 C 15.655085,6.7239468 12.28072,9.6785531 12.124222,10.18442 11.967724,10.690288 13.409718,15.163733 13,15.476376 12.590282,15.789021 8.5064402,13.33149 7.9999999,13.33149 7.4935604,13.33149 3.4097187,15.789021 3,15.476376 2.5902818,15.163733 4.0322763,10.690287 3.8757779,10.18442 3.7192794,9.6785531 0.34491544,6.7239461 0.50141397,6.218078 0.65791242,5.7122106 5.0413721,5.405001 5.4510908,5.0923578 5.8608088,4.7797138 7.4935611,0.49613568 8.0000006,0.49613568 z"
       id="path1307"
       style="fill:url(#radialGradient3924);fill-opacity:1;fill-rule:nonzero;stroke:url(#linearGradient3926);stroke-width:0.99227136;stroke-linecap:butt;stroke-linejoin:round;stroke-miterlimit:4;stroke-opacity:1;stroke-dasharray:none;stroke-dashoffset:0;marker:none;visibility:visible;display:inline;overflow:visible" />
    <path
       d="m 11.96875,26.375 c -0.506596,0.779667 -1.63252,2.593568 -2.90625,5.59375 A 0.14192008,0.14192008 0 0 1 9.03125,32 0.14192008,0.14192008 0 0 1 9,32.03125 a 0.14192008,0.14192008 0 0 1 -0.03125,0 0.14192008,0.14192008 0 0 1 -0.03125,0.03125 0.14192008,0.14192008 0 0 1 -0.03125,-0.03125 0.14192008,0.14192008 0 0 1 -0.03125,0 A 0.14192008,0.14192008 0 0 1 8.84375,32 0.14192008,0.14192008 0 0 1 8.8125,31.96875 a 0.14192008,0.14192008 0 0 1 0,-0.03125 0.14192008,0.14192008 0 0 1 -0.03125,0 c 0.00461,-0.0064 -0.035912,0.0063 -0.03125,0 0.00522,-0.0059 -0.00527,0.03708 0,0.03125 0.00556,-0.0056 -0.036852,0.0055 -0.03125,0 0.00608,-0.005 -0.00612,0.03618 0,0.03125 0.00629,-0.0047 -0.037574,0.0047 -0.03125,0 0.00682,-0.0039 -0.038107,0.0038 -0.03125,0 0.00692,-0.0037 -0.00695,0.03492 0,0.03125 0.00726,-0.003 -0.038533,0.003 -0.03125,0 a 0.14192008,0.14192008 0 0 1 0,0.03125 0.14192008,0.14192008 0 0 1 0.03125,0 0.14192008,0.14192008 0 0 1 0.03125,0.03125 0.14192008,0.14192008 0 0 1 0.03125,0.03125 0.14192008,0.14192008 0 0 1 0,0.03125 0.14192008,0.14192008 0 0 1 0,0.03125 0.14192008,0.14192008 0 0 1 0,0.03125 0.14192008,0.14192008 0 0 1 0,0.03125 0.14192008,0.14192008 0 0 1 -0.03125,0.03125 0.14192008,0.14192008 0 0 1 -0.03125,0.03125 0.14192008,0.14192008 0 0 1 -0.03125,0 C 6.5674679,32.648003 4.0200464,32.991828 2.28125,33.40625 3.3338095,34.641661 4.546242,35.810257 5.71875,37 L 20.75,34.28125 c 0.0052,-0.0052 0.02606,0.0052 0.03125,0 0.28516,-0.285558 0.552815,-0.584263 0.84375,-0.875 -1.985656,-0.473093 -4.21957,-0.75757 -6.28125,-1.09375 a 0.14192008,0.14192008 0 0 1 -0.03125,0 A 0.14192008,0.14192008 0 0 1 15.28125,32.28125 0.14192008,0.14192008 0 0 1 15.25,32.25 a 0.14192008,0.14192008 0 0 1 0,-0.03125 0.14192008,0.14192008 0 0 1 0,-0.03125 0.14192008,0.14192008 0 0 1 0,-0.03125 0.14192008,0.14192008 0 0 1 0,-0.03125 0.14192008,0.14192008 0 0 1 0.03125,-0.03125 0.14192008,0.14192008 0 0 1 0.03125,-0.03125 0.14192008,0.14192008 0 0 1 0.03125,0 0.14192008,0.14192008 0 0 1 0,-0.03125 c 0.0075,0.0027 -0.0387,-0.0027 -0.03125,0 0.0071,0.0035 -0.03835,-0.0035 -0.03125,0 0.007,0.0037 -0.007,-0.03496 0,-0.03125 0.0066,0.0044 -0.03785,-0.0044 -0.03125,0 0.0062,0.0049 -0.0062,-0.03622 0,-0.03125 0.006,0.0052 -0.03724,-0.0052 -0.03125,0 0.0054,0.0058 -0.0053,-0.03713 0,-0.03125 0.0052,0.006 -0.03638,-0.006 -0.03125,0 0.0045,0.0065 -0.0045,-0.0378 0,-0.03125 0.004,0.0069 -0.0352,-0.0069 -0.03125,0 0.0037,0.007 -0.0037,-0.03828 0,-0.03125 l -0.125,0.0625 -0.125,0.0625 c -0.985076,-2.286983 -2.388794,-4.698127 -2.9375,-5.625 z"
       transform="matrix(0.71439082,0,0,0.70011588,-0.57240798,-16.954765)"
       id="path3672"
       style="opacity:0.8;fill:url(#linearGradient3674);fill-opacity:1;fill-rule:nonzero;stroke:none;stroke-width:1;marker:none;visibility:visible;display:inline;overflow:visible;enable-background:accumulate" />
    <path
       d="M 8,2.3125003 C 7.4204974,3.4092238 6.9588891,4.5689462 6.3425158,5.6446934 5.906923,6.2233231 5.14082,6.208774 4.4979816,6.3453057 3.6988865,6.4940441 2.8938979,6.607737 2.09375,6.7500003 c 0.8321477,1.0057613 1.9042251,1.803058 2.6553809,2.8730975 0.2931609,0.5612752 0.086735,1.1940262 0.048954,1.7875722 -0.1300362,0.873671 -0.7822554,2.011403 -0.8721349,2.890749 1.1003565,-0.559851 2.6237664,-1.531888 3.7910708,-1.94011 0.6246409,-0.12796 1.1682081,0.254232 1.7115393,0.49593 0.7264099,0.38268 1.7399469,0.939694 2.4653779,1.324105 -0.123973,-1.302273 -0.773372,-2.733611 -0.799425,-4.042542 0.09173,-0.7298892 0.734153,-1.1887208 1.185876,-1.7078873 C 12.836872,7.884812 13.396785,7.3411772 13.90625,6.7500003 12.695236,6.5344179 11.470554,6.3762266 10.271483,6.1040109 9.5203883,5.8103558 9.33382,4.9605762 8.9786043,4.3239545 8.6518684,3.653685 8.3459188,2.9733088 8,2.3125003 z"
       id="path2894"
       style="opacity:0.8;fill:none;stroke:url(#linearGradient3677);stroke-width:0.99227136;stroke-linecap:butt;stroke-linejoin:round;stroke-miterlimit:4;stroke-opacity:1;stroke-dasharray:none;stroke-dashoffset:0;marker:none;visibility:visible;display:inline;overflow:visible" />
  </g>
</svg>

<svg xmlns="http://www.w3.org/2000/svg" xmlns:xlink="http://www.w3.org/1999/xlink" viewBox="0 0 16 16"><defs><linearGradient x1="24.046" y1="11.673" x2="24.046" y2="34.714" id="h" xlink:href="#a" gradientUnits="userSpaceOnUse" gradientTransform="matrix(.55048 0 0 .57816 -3.826 -5.276)"/><linearGradient id="a"><stop offset="0" stop-color="#fff"/><stop offset=".334" stop-color="#fff" stop-opacity=".235"/><stop offset=".679" stop-color="#fff" stop-opacity=".157"/><stop offset="1" stop-color="#fff" stop-opacity=".392"/></linearGradient><linearGradient x1="11.566" y1="22.292" x2="15.215" y2="33.955" id="g" xlink:href="#b" gradientUnits="userSpaceOnUse" gradientTransform="translate(1.713 22.728) scale(.48936)"/><linearGradient id="b"><stop offset="0" stop-color="#fff" stop-opacity=".275"/><stop offset="1" stop-color="#fff" stop-opacity="0"/></linearGradient><linearGradient id="c"><stop offset="0" stop-color="#fff3cb"/><stop offset=".262" stop-color="#fdde76"/><stop offset=".661" stop-color="#f9c440"/><stop offset="1" stop-color="#e48b20"/></linearGradient><linearGradient id="d"><stop offset="0" stop-color="#b67926"/><stop offset="1" stop-color="#eab41a"/></linearGradient><radialGradient cx="13.139" cy="25.625" r="13.931" fx="13.139" fy="25.625" id="e" xlink:href="#c" gradientUnits="userSpaceOnUse" gradientTransform="matrix(0 .92615 -1.05463 0 32.403 -9.335)"/><linearGradient x1="21.483" y1="36.255" x2="21.483" y2="9.58" id="f" xlink:href="#d" gradientUnits="userSpaceOnUse" gradientTransform="matrix(.55048 0 0 .57816 -3.826 -5.276)"/></defs><path d="M8 .496c.506 0 2.14 4.284 2.55 4.596.41.313 4.792.62 4.95 1.126.155.506-3.22 3.46-3.376 3.966-.156.506 1.286 4.98.876 5.292-.41.313-4.494-2.145-5-2.145-.506 0-4.59 2.46-5 2.15-.41-.31 1.032-4.78.876-5.29C3.72 9.68.346 6.73.5 6.22c.158-.506 4.54-.813 4.95-1.126C5.86 4.78 7.495.497 8 .497z" fill="url(#e)" stroke="url(#f)" stroke-width=".992" stroke-linejoin="round" overflow="visible"/><path d="M11.97 26.375c-.508.78-1.634 2.594-2.908 5.594a.142.142 0 0 1-.03.03.142.142 0 0 1-.032.03.142.142 0 0 1-.03 0 .142.142 0 0 1-.033.03.142.142 0 0 1-.03-.03.142.142 0 0 1-.032 0 .142.142 0 0 1-.03-.03.142.142 0 0 1-.033-.03.142.142 0 0 1 0-.04.142.142 0 0 1-.03 0c.004-.008-.037.005-.032 0 .005-.007-.005.036 0 .03.006-.006-.037.005-.03 0 .005-.005-.007.036 0 .03.005-.005-.04.005-.033 0 .007-.004-.038.004-.03 0 .006-.004-.008.035 0 .03.007-.002-.04.004-.032 0a.142.142 0 0 1 0 .03.142.142 0 0 1 .03 0 .142.142 0 0 1 .033.034.142.142 0 0 1 .03.03.142.142 0 0 1 0 .032.142.142 0 0 1 0 .03.142.142 0 0 1 0 .03.142.142 0 0 1 0 .033.142.142 0 0 1-.03.03.142.142 0 0 1-.032.03.142.142 0 0 1-.03 0c-2.06.337-4.606.68-6.345 1.095 1.06 1.24 2.27 2.41 3.44 3.6l15.03-2.72c.01-.005.03.005.03 0 .29-.285.56-.584.85-.875-1.986-.47-4.22-.755-6.28-1.09a.142.142 0 0 1-.033 0 .142.142 0 0 1-.03-.033.142.142 0 0 1-.032-.03.142.142 0 0 1 0-.03.142.142 0 0 1 0-.03.142.142 0 0 1 0-.03.142.142 0 0 1 0-.03.142.142 0 0 1 .03-.032.142.142 0 0 1 .034-.032.142.142 0 0 1 .03 0 .142.142 0 0 1 0-.03c.007.002-.04-.003-.03 0 .006.003-.04-.004-.033 0 .01.003-.002-.036 0-.032.01.007-.033 0-.03 0 .01.008-.002-.033 0-.03.01.007-.033-.003-.03 0 .008.008-.003-.035 0-.03.008.007-.034-.005-.03 0 .006.007-.003-.04 0-.03.006.006-.034-.008-.03 0 .004.006-.003-.04 0-.03l-.125.06-.124.063c-.985-2.285-2.39-4.696-2.937-5.623z" transform="matrix(.7144 0 0 .70012 -.572 -16.955)" opacity=".8" fill="url(#g)" overflow="visible"/><path d="M8 2.313C7.42 3.41 6.96 4.57 6.343 5.645c-.436.578-1.202.564-1.845.7-.8.15-1.604.263-2.404.405.832 1.006 1.904 1.803 2.655 2.873.29.56.08 1.194.04 1.788-.13.88-.78 2.02-.87 2.89 1.1-.55 2.622-1.53 3.79-1.94.624-.12 1.17.26 1.71.5.726.39 1.74.94 2.465 1.33-.124-1.3-.773-2.732-.8-4.04.092-.73.735-1.19 1.186-1.71.558-.545 1.118-1.09 1.627-1.68-1.21-.216-2.436-.374-3.636-.646-.75-.294-.936-1.143-1.29-1.78-.33-.67-.634-1.35-.98-2.01z" opacity=".8" fill="none" stroke="url(#h)" stroke-width=".992" stroke-linejoin="round" overflow="visible"/></svg>
